X:1
T:Title
%%score { ( 1 3 5 ) | ( 2 4 ) }
L:1/8
Q:1/4=99
M:6/8
K:Ab
V:1 treble nm="Grand Piano"
V:3 treble 
V:5 treble 
V:2 bass 
V:4 bass 
V:1
 [Ec][DB][CA] [CA][CG][CF] | [DG]3 [DG]3 | dcB BAB | c6[K:bass] | edc [Ec][EB][EA] | [EG]3 [DF]3 | %6
w: Mrs.~C.~H.~Morris * * * * *||||||
 [=DB][Dc][DB] [DA][B,DG][A,DF] | [G,E]3- [G,DE]3 | [Ec][DB][CA] [CA][CG][CF] | [DG]3 [DG]3 | %10
w: ||||
 dcB BAB | c6[K:bass] | edc [Ec][EB][_GA] | [FA]3 [Fd]3 | ced c2 B | [CA]6 | .G3 z3 | .G3 z3 | %18
w: ||||||||
 B3 c3 | G6[K:bass] | .A3 z3 | .A3 z3 | c3 =d3 | B6 | .G3 z3 | .B3 z3 | c3 B3 | A6 | %28
w: ||||||||||
 FFF F[C=EG][CFA] | .B3 z3 | G3 z3 | [G,B,E]6 | [Ec]2 [=D_c] [E=c]3 | [CE]2 [_C=D] [=CE]3 | %34
w: ||||||
 [Ec]2 [Ec] [DB]2 A | A2 G G3 | [Gd]2 [_Gc] .[=Gd]3 | [DGB]2 [C_G=A] .[D=GB]3 | %38
w: ||||
 [Ge][Ge][Ed] z A,B | c6[K:bass] | [Ec]2 [=D_c] [E=c]3 | [CE]2 [_C=D] [=CE]3 | %42
w: ||||
 [Ee]2 [_Ge] [Fd]2 [Fc] | [FB]2 [DF] [DF]3 | [Af]2 [Af] [Af]3 | [Ae]2 [Ae] [Ae]2 [Ec] | %46
w: ||||
 [Ge]2 [Ae] [Ge]2 [DEG][Q:1/4=97][Q:1/4=96][Q:1/4=94][Q:1/4=93][Q:1/4=91][Q:1/4=90][Q:1/4=88][Q:1/4=87][Q:1/4=85][Q:1/4=84][Q:1/4=82][Q:1/4=80][Q:1/4=79][Q:1/4=77][Q:1/4=76] | %47
w: |
 [CEA]6 |] %48
w: |
V:2
 [A,,A,][A,,A,][A,,A,] [A,,E,][A,,E,][A,,E,] | [B,,E,]3 [B,,E,]3 | %2
 [E,B,E][E,A,E][E,G,E] [E,G,E][E,F,E][E,G,E] | .[A,E]6 | %4
 [A,CA][K:bass][A,B,E][A,E] [A,,A,][B,,G,][C,A,] | [D,A,]3 [D,A,]3 | %6
 [B,,A,][B,,A,][B,,A,] [B,,F,]B,,B,, | E,2 E,- E,2 z | %8
 [A,,A,][A,,A,][A,,A,] [A,,E,][A,,E,][A,,E,] | [B,,E,]3 [B,,E,]3 | %10
 [E,B,E][E,A,E][E,G,E] [E,G,E][E,F,E][E,G,E] | .[A,E]6 | %12
 [A,CA][K:bass][A,B,E][A,E] [A,,A,][B,,G,][C,A,] | [D,D]3 [D,A,]3 | %14
 [E,A,E][E,CE][E,B,E] [E,A,E]2 [E,G,D] | [A,,A,]6 | z [G,B,][G,B,E] z [A,B,=D][G,B,] | %17
 z [G,B,][G,B,E] z [A,B,=D][G,B,] | z [G,B,E][G,B,E] z [G,CE][G,CE] | %19
 [E,,E,][B,,G,B,][C,G,B,] .[=D,G,B,]3 | z[K:treble] [A,=D][A,DF][K:bass] z [G,B,E][A,B,D] | %21
 z [A,=D][A,DF] z [G,B,E][A,B,D] | z[K:treble] [B,F][B,F][K:bass] z [B,=D][B,D] | %23
 [E,,E,][B,,B,]C, =D, .E,2 | z [G,B,][G,B,E] z [A,B,E][G,B,] | %25
 z[K:treble] [G,B,E][G,B,EG][K:bass] z [A,B,F][G,B,E] | z [B,C][B,C] z [B,C=E][B,CE] | %27
 [F,,F,][C,A,C]A,, F,, .C,2 | z CC [A,,A,][G,,G,][F,,F,] | [G,,G,]2 [F,,F,] [E,,E,][G,,G,]A,, | %30
 z B,B, B,,C,=D, | E,,B,,G,, E,,3 | [A,,A,]2 [A,,A,] [A,,A,]3 | [A,,A,]2 [A,,A,] [A,,A,]3 | %34
 [A,,A,]3 z2 C | [E,B,D]2 [E,B,D] [E,B,D]3 | [E,B,]2 [E,=A,] z[K:treble] FE | %37
 E,2 E, z[K:treble] FE | [E,B,][E,B,][E,B,] [E,G,]F,[G,B,E] | [A,E]6 | [A,,A,]2 [A,,A,] [A,,A,]3 | %41
 [A,,A,]2 [A,,A,] [A,,A,]3 | [A,,C]2 [=A,,C] [B,,B,]2 [C,=A,] | [D,B,]2 [D,B,] [D,B,]3 | %44
 [=D,B,]2 [D,_C] [D,C]3 | [E,C]2 [E,C] [E,C]2 [E,A,] | [E,C]2 [E,C] [E,D]2 E, | A,,6 |] %48
V:3
 x6 | x6 | x6 | z[K:bass] E,F, G,A,B, | x6 | x6 | x6 | B,3 z3 | x6 | x6 | x6 | %11
 z[K:bass] E,F, G,A,B, | x6 | x6 | x6 | x6 | z EG [G,G]FE | z EG GFE | z GG z GG | z3 .E3[K:bass] | %20
 z FA AGF | z FA AGF | z AA z AA | z [EG][B,EG] [B,EG]2 F, | z EG GFE | z GB BAG | z GG z GG | %27
 z F[A,CF] [A,CF]2 F, | x6 | B,E[=DAB] [EGB][EBe][A,CFA] | z EE [A,B,F]3 | .E,3 z3 | x6 | x6 | x6 | %35
 x6 | x6 | x6 | z3 .[EB]3 | z[K:bass] F,E, D,C,B,, | x6 | x6 | x6 | x6 | x6 | x6 | x6 | x6 |] %48
V:4
 x6 | x6 | x6 | x6 | x[K:bass] x5 | x6 | x6 | z .F,2 D,C,B,, | x6 | x6 | x6 | x6 | x[K:bass] x5 | %13
 x6 | x6 | x6 | .[E,,E,]3 .[B,,,B,,]3 | .[E,,E,]3 .[B,,,B,,]3 | .[E,,E,]3 .[B,,,B,,]3 | x6 | %20
 .[F,,F,]3[K:treble][K:bass] .[B,,,B,,]3 | .[F,,F,]3 .[B,,,B,,]3 | %22
 .[=D,,=D,]3[K:treble][K:bass] .[B,,,B,,]3 | x6 | .[E,,E,]3 .[B,,,B,,]3 | %25
 .[E,,E,]3[K:treble][K:bass] .[B,,,B,,]3 | .[E,,E,]3 .[B,,,B,,]3 | x6 | .[B,,A,]3 z3 | x6 | %30
 B,,3 z3 | x6 | x6 | x6 | z3 [A,,A,]3 | x6 | z3 [E,B,]3[K:treble] | z3 E,3[K:treble] | x6 | x6 | %40
 x6 | x6 | x6 | x6 | x6 | x6 | x6 | x6 |] %48
V:5
 x6 | x6 | x6 | x[K:bass] x5 | x6 | x6 | x6 | x6 | x6 | x6 | x6 | x[K:bass] x5 | x6 | x6 | x6 | %15
 x6 | x6 | x6 | x6 | z EE z[K:bass] E,=E, | x6 | x6 | x6 | x6 | x6 | x6 | x6 | x6 | x6 | x6 | x6 | %31
 x6 | x6 | x6 | x6 | x6 | x6 | x6 | x6 | x[K:bass] x5 | x6 | x6 | x6 | x6 | x6 | x6 | x6 | x6 |] %48

